assets/images/toolchain-column-5.svg

<svg width="43" height="40" viewBox="0 0 43 40" fill="none" xmlns="http://www.w3.org/2000/svg">
<path d="M14.718 0.93395H26.9235L14.2529 38.4757C14.1222 38.8612 13.8741 39.1961 13.5434 39.4335C13.2128 39.6708 12.8161 39.7988 12.4091 39.7994H2.90995C1.84402 39.7994 0.966797 38.9225 0.966797 37.8565C0.966797 37.6453 1.0013 37.4356 1.0688 37.2355L12.8738 2.25788C13.0045 1.87223 13.2526 1.53714 13.5833 1.2996C13.914 1.06206 14.3108 0.933991 14.718 0.93335V0.93395Z" fill="url(#paint0_linear_2229_3198)"/>
<path d="M32.4546 26.1145H13.0984C12.607 26.1145 12.2026 26.5189 12.2026 27.0104C12.2026 27.2587 12.3061 27.4963 12.4877 27.6656L24.925 39.274C25.2871 39.6118 25.7638 39.7996 26.2589 39.7994H37.2187L32.4546 26.1145Z" fill="#0078D4"/>
<path d="M14.7182 0.933966C14.3066 0.932966 13.9054 1.06329 13.573 1.30598C13.2406 1.54867 12.9943 1.89108 12.8698 2.2834L1.08373 37.2034C1.00821 37.4137 0.969637 37.6355 0.969727 37.8589C0.969727 38.9234 1.84575 39.7994 2.91048 39.7994H12.6598C13.0226 39.7343 13.3617 39.5742 13.6425 39.3355C13.9233 39.0967 14.1358 38.7877 14.2583 38.4401L16.6085 31.5132L25.0043 39.344C25.3561 39.6348 25.7973 39.7957 26.2538 39.7994H37.1726L32.3839 26.1145L18.4236 26.1178L26.9678 0.933966H14.7182Z" fill="url(#paint1_linear_2229_3198)"/>
<path d="M30.3077 2.25579C30.1771 1.87086 29.9293 1.53643 29.5991 1.29939C29.2688 1.06235 28.8727 0.93457 28.4662 0.93396H14.8633C15.2698 0.934615 15.6659 1.06241 15.9961 1.29945C16.3263 1.53648 16.5741 1.87088 16.7047 2.25579L28.51 37.2349C28.5775 37.4353 28.612 37.645 28.612 37.8565C28.612 38.9228 27.7348 39.8 26.6686 39.8H40.2722C41.3381 39.7997 42.215 38.9225 42.215 37.8565C42.215 37.645 42.1805 37.4353 42.113 37.2349L30.3077 2.25579Z" fill="url(#paint2_linear_2229_3198)"/>
<defs>
<linearGradient id="paint0_linear_2229_3198" x1="19.1666" y1="3.81403" x2="6.49054" y2="41.2616" gradientUnits="userSpaceOnUse">
<stop stop-color="#114A8B"/>
<stop offset="1" stop-color="#0669BC"/>
</linearGradient>
<linearGradient id="paint1_linear_2229_3198" x1="23.1264" y1="21.2656" x2="20.1943" y2="22.2571" gradientUnits="userSpaceOnUse">
<stop stop-opacity="0.3"/>
<stop offset="0.07" stop-opacity="0.2"/>
<stop offset="0.32" stop-opacity="0.1"/>
<stop offset="0.62" stop-opacity="0.05"/>
<stop offset="1" stop-opacity="0"/>
</linearGradient>
<linearGradient id="paint2_linear_2229_3198" x1="21.5134" y1="2.72172" x2="35.4279" y2="39.7918" gradientUnits="userSpaceOnUse">
<stop stop-color="#3CCBF4"/>
<stop offset="1" stop-color="#2892DF"/>
</linearGradient>
</defs>
</svg>

<svg xmlns="http://www.w3.org/2000/svg" width="43" height="40" fill="none"><path fill="url(#a)" d="M14.718.934h12.206L14.253 38.476a1.95 1.95 0 0 1-1.844 1.323h-9.5a1.95 1.95 0 0 1-1.942-1.943c0-.21.034-.42.102-.62L12.874 2.258A1.95 1.95 0 0 1 14.718.933"/><path fill="#0078D4" d="M32.455 26.115H13.098a.897.897 0 0 0-.61 1.551l12.437 11.608c.362.338.839.526 1.334.525h10.96z"/><path fill="url(#b)" d="M14.718.934a1.93 1.93 0 0 0-1.848 1.35L1.084 37.203q-.114.317-.114.655a1.95 1.95 0 0 0 1.94 1.94h9.75a2.09 2.09 0 0 0 1.598-1.359l2.35-6.927 8.396 7.831c.352.29.793.452 1.25.455h10.919l-4.79-13.684-13.96.003L26.969.934z"/><path fill="url(#c)" d="M30.308 2.256A1.95 1.95 0 0 0 28.466.934H14.863a1.95 1.95 0 0 1 1.842 1.322L28.51 37.235c.067.2.102.41.102.621a1.953 1.953 0 0 1-1.943 1.944h13.603a1.953 1.953 0 0 0 1.943-1.944q0-.318-.102-.621z"/><defs><linearGradient id="a" x1="19.167" x2="6.491" y1="3.814" y2="41.262" gradientUnits="userSpaceOnUse"><stop stop-color="#114A8B"/><stop offset="1" stop-color="#0669BC"/></linearGradient><linearGradient id="b" x1="23.126" x2="20.194" y1="21.266" y2="22.257" gradientUnits="userSpaceOnUse"><stop stop-opacity=".3"/><stop offset=".07" stop-opacity=".2"/><stop offset=".32" stop-opacity=".1"/><stop offset=".62" stop-opacity=".05"/><stop offset="1" stop-opacity="0"/></linearGradient><linearGradient id="c" x1="21.513" x2="35.428" y1="2.722" y2="39.792" gradientUnits="userSpaceOnUse"><stop stop-color="#3CCBF4"/><stop offset="1" stop-color="#2892DF"/></linearGradient></defs></svg>
